public/avatar/hat/230.svg

<svg xmlns:xlink="http://www.w3.org/1999/xlink" height="92.9" width="100.7" xmlns="http://www.w3.org/2000/svg"><g transform="translate(38.65 49.75)"><use height="19" transform="translate(-18.25 -12.3)" width="36.65" xlink:href="#a"/><use height="24.05" transform="translate(2.05 -6.8)" width="17.2" xlink:href="#b"/></g><defs><g id="c" fill-rule="evenodd"><path d="M8.8 6.6Q5.3 9.5.4 9.5h-.9q-4.85 0-8.4-2.9L-9.95-.35q5.2 1.8 9.8 1.85h.2q4.6-.05 9.85-1.85L8.8 6.6" transform="translate(18.35 9.5)"/><path d="M10.4-6.5q7.9 3.05 7.9 4.15 0 1.05-8.1 4Q2.25 4.5.15 4.5l-.2-.05-.15.05q-2.1 0-10.05-2.85-8.1-2.95-8.1-4 0-1.1 7.75-4.15 7.75-3 10.4-3 2.7 0 10.6 3" transform="translate(18.35 9.5)"/><path d="M-11.9-.45q-4.15-1.7-4.1-2.25l8.95-4.1L-14-2.65l2.1 2.2m3.85 2.6Q-4 4.5-.2 4.5q3.85 0 8.5-2.5Q2.8 6-.2 6t-7.85-3.85" fill="#545454" transform="translate(18.35 9.5)"/><path d="M.95-7.25.15-1.6q-1.3-.05-2.3-.8-1.7-1.2-1.1-2.25.7-1.3 1.75-1.95l2.45-.65" fill="#700000" transform="translate(18.35 9.5)"/><path d="M.1-7.25q2.25 0 3.2 1.9.7 1.45.45 2.25Q3.15-1.55.1-1.55q-3 0-3.6-1.55-.25-.8.45-2.25.95-1.9 3.15-1.9" fill="#900" transform="translate(18.35 9.5)"/><path d="M.1-7.25q1.65 0 .9 2.05Q.6-4.1-.85-3.45-2.3-2.8-3-3.6q-.75-.9.25-2.25Q-1.7-7.3.1-7.25" fill="#d90000" transform="translate(18.35 9.5)"/></g><g id="b" fill-rule="evenodd"><path d="m13.25-1.65.95 7.8-3.45 4.25-.65-1.15q-.5-1.4.1-2.7.6-1.35 1.5-1.9l.75-.25v-5.75l.8-.3" fill="#4c0000" transform="translate(-2.05 6.8)"/><path d="m13.35-2.15.3.9q0 .65-.6.65l-1.6-1.75q0-.7.65-.7.75 0 1.25.9" fill="#4c0000" transform="translate(-2.05 6.8)"/><path d="m15.6-3.75.5 2 .15 5.85 1 1q1 1.3 1 2.85 0 1.65-.85 3l.95 1.55q.9 1.7.9 2.7 0 1.65-4.85 2l-.65-20.05 1.85-.9" fill="#300" transform="translate(-2.05 6.8)"/><path d="M13.35-4.25q2.1.85 2.1 3.3l.1 6.6q-.1 1.15-1.3 1.1-1.15 0-1.15-1.2l.1-6q0-1.35-1.25-1.65L7.8-3.3 2.35-4.65q-.65-1 .05-1.6.75-.75 1.7-.5L9-5.55l4.35 1.3" fill="#900" transform="translate(-2.05 6.8)"/><path d="M18.15 14.85q.1 2.1-4 2.35-5.8.35-5-2.75l2.6-6.25H16l-.5 5.65 2.65 1" fill="#4c0000" transform="translate(-2.05 6.8)"/><path d="M13.9 4.75q3.15 0 3.4 3.15t-3.4 3.15q-3.6 0-3.35-3.15t3.35-3.15" fill="#900" transform="translate(-2.05 6.8)"/><path d="m12 9.65 1.95.15 2-.15 2.1 4.7q.45.8-.85 1.45-1.25.65-3.2.65h-.05q-1.95 0-3.2-.65-1.3-.65-.85-1.45l2.1-4.7" fill="#900" transform="translate(-2.05 6.8)"/><path d="m11.25 10.25 2.65.85 2.1-.45 1.25 4q-2.1-1.5-3.6-2.25L11 11.25l.25-1" fill="#700000" transform="translate(-2.05 6.8)"/><path d="M13.25 5.05Q15 4.95 14.9 7q-.05 2-2.25 2.2-2.1.25-1.55-1.9t2.15-2.25M11.4 11.2l.3 1.3-.25 3.55q-.5-.15-.9-.45-.9-.5-.65-1.05l1.5-3.35m1.45 5.15.35-3.25.5-.1.55 3.5-1.4-.15m.7-16.45q.2-2.25-1.35-2.75-8-1.65-8-2.1 0-.7 2.1-.5l3.6.8q3.05.9 3.9 2.05 2.15 2.75-.1 7l-.15-4.5" fill="#d90000" transform="translate(-2.05 6.8)"/></g><use height="19" width="36.65" xlink:href="#c" id="a"/></defs></svg>

<?xml version="1.0" encoding="UTF-8" standalone="no"?>
<svg xmlns:xlink="http://www.w3.org/1999/xlink" height="92.9px" width="100.7px" xmlns="http://www.w3.org/2000/svg">
  <g transform="matrix(1.0, 0.0, 0.0, 1.0, 38.65, 49.75)">
    <use height="19.0" transform="matrix(1.0, 0.0, 0.0, 1.0, -18.25, -12.3)" width="36.65" xlink:href="#sprite0"/>
    <use height="24.05" transform="matrix(1.0, 0.0, 0.0, 1.0, 2.05, -6.8)" width="17.2" xlink:href="#shape1"/>
  </g>
  <defs>
    <g id="sprite0" transform="matrix(1.0, 0.0, 0.0, 1.0, 18.35, 9.5)">
      <use height="19.0" transform="matrix(1.0, 0.0, 0.0, 1.0, -18.35, -9.5)" width="36.65" xlink:href="#shape0"/>
    </g>
    <g id="shape0" transform="matrix(1.0, 0.0, 0.0, 1.0, 18.35, 9.5)">
      <path d="M8.8 6.6 Q5.3 9.5 0.4 9.5 L-0.5 9.5 Q-5.35 9.5 -8.9 6.6 L-9.95 -0.35 Q-4.75 1.45 -0.15 1.5 L0.05 1.5 Q4.65 1.45 9.9 -0.35 L8.8 6.6" fill="#000000" fill-rule="evenodd" stroke="none"/>
      <path d="M10.4 -6.5 Q18.3 -3.45 18.3 -2.35 18.3 -1.3 10.2 1.65 2.25 4.5 0.15 4.5 L-0.05 4.45 -0.2 4.5 Q-2.3 4.5 -10.25 1.65 -18.35 -1.3 -18.35 -2.35 -18.35 -3.45 -10.6 -6.5 -2.85 -9.5 -0.2 -9.5 2.5 -9.5 10.4 -6.5" fill="#000000" fill-rule="evenodd" stroke="none"/>
      <path d="M-11.9 -0.45 Q-16.05 -2.15 -16.0 -2.7 L-7.05 -6.8 -14.0 -2.65 -11.9 -0.45" fill="#545454" fill-rule="evenodd" stroke="none"/>
      <path d="M-8.05 2.15 Q-4.0 4.5 -0.2 4.5 3.65 4.5 8.3 2.0 2.8 6.0 -0.2 6.0 -3.2 6.0 -8.05 2.15" fill="#545454" fill-rule="evenodd" stroke="none"/>
      <path d="M0.95 -7.25 L0.15 -1.6 Q-1.15 -1.65 -2.15 -2.4 -3.85 -3.6 -3.25 -4.65 -2.55 -5.95 -1.5 -6.6 L0.95 -7.25" fill="#700000" fill-rule="evenodd" stroke="none"/>
      <path d="M0.1 -7.25 Q2.35 -7.25 3.3 -5.35 4.0 -3.9 3.75 -3.1 3.15 -1.55 0.1 -1.55 -2.9 -1.55 -3.5 -3.1 -3.75 -3.9 -3.05 -5.35 -2.1 -7.25 0.1 -7.25" fill="#990000" fill-rule="evenodd" stroke="none"/>
      <path d="M0.1 -7.25 Q1.75 -7.25 1.0 -5.2 0.6 -4.1 -0.85 -3.45 -2.3 -2.8 -3.0 -3.6 -3.75 -4.5 -2.75 -5.85 -1.7 -7.3 0.1 -7.25" fill="#d90000" fill-rule="evenodd" stroke="none"/>
    </g>
    <g id="shape1" transform="matrix(1.0, 0.0, 0.0, 1.0, -2.05, 6.8)">
      <path d="M13.25 -1.65 L14.2 6.15 10.75 10.4 10.1 9.25 Q9.6 7.85 10.2 6.55 10.8 5.2 11.7 4.65 L12.45 4.4 12.45 -1.35 13.25 -1.65" fill="#4c0000" fill-rule="evenodd" stroke="none"/>
      <path d="M13.35 -2.15 L13.65 -1.25 Q13.65 -0.6 13.05 -0.6 L11.45 -2.35 Q11.45 -3.05 12.1 -3.05 12.85 -3.05 13.35 -2.15" fill="#4c0000" fill-rule="evenodd" stroke="none"/>
      <path d="M15.6 -3.75 L16.1 -1.75 16.25 4.1 17.25 5.1 Q18.25 6.4 18.25 7.95 18.25 9.6 17.4 10.95 L18.35 12.5 Q19.25 14.2 19.25 15.2 19.25 16.85 14.4 17.2 L13.75 -2.85 15.6 -3.75" fill="#330000" fill-rule="evenodd" stroke="none"/>
      <path d="M13.35 -4.25 Q15.45 -3.4 15.45 -0.95 L15.55 5.65 Q15.45 6.8 14.25 6.75 13.1 6.75 13.1 5.55 L13.2 -0.45 Q13.2 -1.8 11.95 -2.1 L7.8 -3.3 2.35 -4.65 Q1.7 -5.65 2.4 -6.25 3.15 -7.0 4.1 -6.75 L9.0 -5.55 13.35 -4.25" fill="#990000" fill-rule="evenodd" stroke="none"/>
      <path d="M18.15 14.85 Q18.25 16.95 14.15 17.2 8.35 17.55 9.15 14.45 L11.75 8.2 16.0 8.2 15.5 13.85 18.15 14.85" fill="#4c0000" fill-rule="evenodd" stroke="none"/>
      <path d="M13.9 4.75 Q17.05 4.75 17.3 7.9 17.55 11.05 13.9 11.05 10.3 11.05 10.55 7.9 10.8 4.75 13.9 4.75" fill="#990000" fill-rule="evenodd" stroke="none"/>
      <path d="M12.0 9.65 L13.95 9.8 15.95 9.65 18.05 14.35 Q18.5 15.15 17.2 15.8 15.95 16.45 14.0 16.45 L13.95 16.45 Q12.0 16.45 10.75 15.8 9.45 15.15 9.9 14.35 L12.0 9.65" fill="#990000" fill-rule="evenodd" stroke="none"/>
      <path d="M11.25 10.25 L13.9 11.1 16.0 10.65 17.25 14.65 Q15.15 13.15 13.65 12.4 L11.0 11.25 11.25 10.25" fill="#700000" fill-rule="evenodd" stroke="none"/>
      <path d="M13.25 5.05 Q15.0 4.95 14.9 7.0 14.85 9.0 12.65 9.2 10.55 9.45 11.1 7.3 11.65 5.15 13.25 5.05" fill="#d90000" fill-rule="evenodd" stroke="none"/>
      <path d="M11.4 11.2 L11.7 12.5 11.45 16.05 Q10.95 15.9 10.55 15.6 9.65 15.1 9.9 14.55 L11.4 11.2" fill="#d90000" fill-rule="evenodd" stroke="none"/>
      <path d="M12.85 16.35 L13.2 13.1 13.7 13.0 14.25 16.5 12.85 16.35" fill="#d90000" fill-rule="evenodd" stroke="none"/>
      <path d="M13.55 -0.1 Q13.75 -2.35 12.2 -2.85 4.2 -4.5 4.2 -4.95 4.2 -5.65 6.3 -5.45 L9.9 -4.65 Q12.95 -3.75 13.8 -2.6 15.95 0.15 13.7 4.4 L13.55 -0.1" fill="#d90000" fill-rule="evenodd" stroke="none"/>
    </g>
  </defs>
</svg>
